X: 9
T: Ballyket Courthouse, The
M: 4/4
L: 1/8
R: reel
K: Gmaj
|: G | d2 ed dBAG | EA-AG A3 B | eged dBAG | EG-GF G3 :|
|: g | g2 fg edBd | ea-ag agef | g2 fg edBd | eg-gf g3 :|
